assets/svg/666.svg

<?xml version="1.0" encoding="utf-8"?>
<svg xmlns="http://www.w3.org/2000/svg" version="1.1" x="0px" y="0px" xml:space="preserve" width="53.978" height="53.978" viewBox="0 -53.978 53.978 53.978">
	<g>
		<rect x="0" y="-53.978" style="fill:none;" width="53.978" height="53.978"/>
		<path d="M4.75-51.75c-2.625-0.125-3.5,1.25,0,1.25S7.875-51.875,4.75-51.75z"/>
		<path d="M11.5-50.375c0.5,0.375,1.25,1,3.125,0.375c2.401-0.8,1.25-1.75-1.25-1.875C11-51.75,11-50.75,11.5-50.375z"/>
		<path d="M22.5-51.75c-4,0.25-2.25,1.75,0.375,1.625S25.375-51.625,22.5-51.75z"/>
		<path d="M31.125-52c-2.625,0.125-3,1.5,0.25,1.375S35-52.125,31.125-52z"/>
		<path d="M40.75-50.125c2.375-0.125,2.75-1.25,0-1.875C35.75-52.125,38.375-50,40.75-50.125z"/>
		<path d="M48.125-52c-2.75,0.25-2.125,1.625,0.375,1.5S50.5-52,48.125-52z"/>
		<path d="M0-45.804c0.298,0.05,0.633,0.072,1,0.054c2.625-0.125,2-1.75-0.75-1.75c-0.087,0-0.17,0.002-0.25,0.005"/>
		<path d="M10.375-47.25c-0.375-1-0.875-1-2.75-0.375c-2.375,0.5-0.5,1.625,1.25,1.5S10.75-46.25,10.375-47.25z"/>
		<path d="M17.375-47.5c-3.625,0-2.25,1.625,0.25,1.625S20.25-47.125,17.375-47.5z"/>
		<path d="M27.625-47.375C23.625-48.5,24.625-46,27-46S29.625-46.5,27.625-47.375z"/>
		<path d="M35.875-47.625c-4.125,0.25-1,1.875,1.625,1.375S38.125-47.375,35.875-47.625z"/>
		<path d="M44.125-46.5c3.125-0.125,2.625-1.375-0.125-1.375C41.5-48,41-46.375,44.125-46.5z"/>
		<path d="M6-9.375C7.75-9.5,7.875-9.5,7.5-10.5s-0.875-1-2.75-0.375C2.375-10.375,4.25-9.25,6-9.375z"/>
		<path d="M14.75-9.125c2.5,0,2.625-1.25-0.25-1.625C10.875-10.75,12.25-9.125,14.75-9.125z"/>
		<path d="M24.125-9.25c2.375,0,2.625-0.5,0.625-1.375C20.75-11.75,21.75-9.25,24.125-9.25z"/>
		<path d="M34.625-9.5C37.25-10,35.25-10.625,33-10.875C28.875-10.625,32-9,34.625-9.5z"/>
		<path d="M41.25-9.75c3.125-0.125,2.625-1.375-0.125-1.375C38.625-11.25,38.125-9.625,41.25-9.75z"/>
		<path d="M51.125-9.375C54-9.25,53.25-10.875,50.625-11S47-9.375,51.125-9.375z"/>
		<path d="M45.625-41.125C43.75-40.75,43.5-39.5,46.5-39.5c3.125,0,2.625-0.625,1.75-1.25S47.5-41.5,45.625-41.125z"/>
		<path d="M34.5-39.5c-1.875,0-3,2,0.25,1.875C38.625-37.375,36.375-39.5,34.5-39.5z"/>
		<path d="M9.33-2.26c3.875,0.25,1.625-1.875-0.25-1.875S6.08-2.135,9.33-2.26z"/>
		<path d="M16.875-40.5c1.5,0.25,1.75,0.25,2.625-0.5s0.375-1.125-1.625-1.125C15.625-42.125,15.375-40.75,16.875-40.5z"/>
		<path d="M44.75-4.75c1.5,0.25,1.75,0.25,2.625-0.5s0.375-1.125-1.625-1.125C43.5-6.375,43.25-5,44.75-4.75z"/>
		<path d="M4.375-41.375c2.375-0.375,2-1.5-0.25-1.75C1.375-43.375,2-41,4.375-41.375z"/>
		<path d="M8.083-35.375c-2.875,0-2.875,1.625,0.25,1.625S10.333-35.5,8.083-35.375z"/>
		<path d="M33.917-28.458c3.125,0,2-1.75-0.25-1.625C30.792-30.083,30.792-28.458,33.917-28.458z"/>
		<path d="M28.125-33.875c1.539-0.535-0.125-1.5-2-1.75C20.875-34.875,25.25-32.875,28.125-33.875z"/>
		<path d="M48-28.417c2.25-0.75,0.75-1.5-1.5-1.5c0,0-1.25,0-1.875,0.25C43-28.042,45.75-27.667,48-28.417z"/>
		<path d="M20.667-26.75c3,0.125,2.875-1.5,0-1.625C17.542-28.375,17.667-26.875,20.667-26.75z"/>
		<path d="M46.625-18.5c-3.125,0.125-2,1.75,0.375,1.75S49.75-18.625,46.625-18.5z"/>
		<path d="M36-20c2.75,0,2.75-1.75-0.125-1.75C32.75-21.875,33.25-20,36-20z"/>
		<path d="M22.125-17.625c2.5,0,2.25-1.75-0.5-1.75C18.25-19,19.625-17.625,22.125-17.625z"/>
		<path d="M8.125-22.75c2.625,0,3-1.75-0.25-1.75C4.875-24.375,5.5-22.75,8.125-22.75z"/>
		<path d="M29.25-2c2.625,0,3-1.75-0.25-1.75C26-3.625,26.625-2,29.25-2z"/>
		<path d="M3.875-15.25c2.5-0.125,2.5-1.5-0.375-1.375C0.125-16.375,1.375-15.125,3.875-15.25z"/>
		<path d="M53.978-47.495c-2.193,0.091-1.765,1.393,0,1.691"/>
	</g>
</svg>

<svg xmlns="http://www.w3.org/2000/svg" xml:space="preserve" width="53.98" height="53.98" viewBox="0 -53.98 53.98 53.98"><path d="M0-53.98h53.98V0H0z" style="fill:none"/><path d="M4.75-51.75c-2.63-.13-3.5 1.25 0 1.25s3.13-1.38 0-1.25zM11.5-50.38c.5.38 1.25 1 3.13.38 2.4-.8 1.24-1.75-1.26-1.88-2.37.13-2.37 1.13-1.87 1.5zM22.5-51.75c-4 .25-2.25 1.75.38 1.63s2.5-1.5-.38-1.63zM31.13-52c-2.63.13-3 1.5.25 1.38s3.62-1.5-.25-1.38zM40.75-50.13c2.38-.12 2.75-1.24 0-1.87-5-.13-2.38 2 0 1.88zM48.13-52c-2.76.25-2.13 1.63.37 1.5s2-1.5-.38-1.5zM0-45.8c.3.05.63.07 1 .05 2.63-.13 2-1.75-.75-1.75H0M10.38-47.25c-.38-1-.88-1-2.76-.38-2.37.5-.5 1.63 1.25 1.5s1.88-.12 1.5-1.12zM17.38-47.5c-3.63 0-2.25 1.63.25 1.63s2.62-1.26-.25-1.63zM27.63-47.38c-4-1.12-3 1.38-.63 1.38s2.63-.5.63-1.38zM35.88-47.63c-4.13.26-1 1.88 1.62 1.38s.63-1.13-1.63-1.38zM44.13-46.5c3.12-.13 2.62-1.38-.13-1.38-2.5-.12-3 1.5.13 1.38zM6-9.38c1.75-.12 1.88-.12 1.5-1.12s-.88-1-2.75-.38c-2.38.5-.5 1.63 1.25 1.5zM14.75-9.13c2.5 0 2.63-1.24-.25-1.62-3.63 0-2.25 1.63.25 1.63zM24.13-9.25c2.37 0 2.62-.5.62-1.38-4-1.12-3 1.38-.63 1.38zM34.63-9.5c2.62-.5.62-1.13-1.63-1.38-4.13.26-1 1.88 1.63 1.38zM41.25-9.75c3.13-.13 2.63-1.38-.13-1.38-2.5-.12-3 1.5.13 1.38zM51.13-9.38c2.87.13 2.12-1.5-.5-1.62s-3.63 1.63.5 1.63zM45.63-41.13c-1.88.38-2.13 1.63.87 1.63 3.13 0 2.63-.63 1.75-1.25s-.75-.75-2.63-.38zM34.5-39.5c-1.88 0-3 2 .25 1.88 3.88.24 1.63-1.88-.25-1.88zM9.33-2.26c3.88.25 1.63-1.88-.25-1.88s-3 2 .25 1.88zM16.88-40.5c1.5.25 1.75.25 2.62-.5s.38-1.13-1.63-1.13c-2.25 0-2.5 1.38-1 1.63zM44.75-4.75c1.5.25 1.75.25 2.63-.5s.37-1.13-1.63-1.13c-2.25 0-2.5 1.38-1 1.63zM4.38-41.38c2.37-.37 2-1.5-.25-1.74-2.75-.26-2.13 2.12.25 1.74zM8.08-35.38c-2.87 0-2.87 1.63.25 1.63s2-1.75-.25-1.63zM33.92-28.46c3.12 0 2-1.75-.25-1.62-2.88 0-2.88 1.62.25 1.62zM28.13-33.88c1.53-.53-.13-1.5-2-1.74-5.25.74-.88 2.74 2 1.74zM48-28.42c2.25-.75.75-1.5-1.5-1.5 0 0-1.25 0-1.88.25-1.62 1.63 1.13 2 3.38 1.25zM20.67-26.75c3 .13 2.87-1.5 0-1.63-3.13 0-3 1.5 0 1.63zM46.63-18.5c-3.13.13-2 1.75.37 1.75s2.75-1.88-.38-1.75zM36-20c2.75 0 2.75-1.75-.13-1.75-3.12-.13-2.62 1.75.13 1.75zM22.13-17.63c2.5 0 2.25-1.75-.5-1.75-3.38.38-2 1.75.5 1.75zM8.13-22.75c2.62 0 3-1.75-.26-1.75-3 .13-2.37 1.75.25 1.75zM29.25-2c2.63 0 3-1.75-.25-1.75-3 .13-2.38 1.75.25 1.75zM3.88-15.25c2.5-.13 2.5-1.5-.38-1.38-3.38.25-2.13 1.5.38 1.38zM53.98-47.5c-2.2.1-1.77 1.4 0 1.7"/></svg>
